img/card.svg

<svg width="21" height="20" viewBox="0 0 21 20" fill="none" xmlns="http://www.w3.org/2000/svg">
<path d="M21 8.4C21 7.84165 20.7788 7.30617 20.385 6.91135C19.9913 6.51654 19.4572 6.29474 18.9004 6.29474H17.7246L12.6016 0H0.00398527V2.10526H11.7303L15.0686 6.31579H8.71733L6.70171 8.42105L11.7618 13.1789L11.2054 13.9474C9.65165 13.1895 4.90655 10.7368 3.14289 9C2.78945 8.654 2.51315 8.23683 2.3322 7.77598C2.15125 7.31512 2.06976 6.82105 2.09309 6.32632H0.00398527C-0.0251966 7.10411 0.106133 7.87956 0.389746 8.60409C0.673359 9.32862 1.10314 9.98661 1.65217 10.5368C3.39484 12.2737 8.30791 14.8632 10.3655 15.8947C10.7922 16.1096 11.282 16.163 11.7448 16.0451C12.2076 15.9271 12.6124 15.6458 12.885 15.2526L13.7354 13.9474C13.9186 13.4981 13.9414 12.999 13.7998 12.5348C13.6583 12.0706 13.3611 11.6697 12.9585 11.4L9.71464 8.37895H18.9004V10.4842H13.6514L14.2603 10.9895C14.7004 11.4229 14.9972 11.9814 15.1106 12.5895H18.9004V17.8526H5.25299V14.8842L3.15339 13.6842V17.8947C3.15339 18.4531 3.3746 18.9886 3.76835 19.3834C4.1621 19.7782 4.69614 20 5.25299 20H18.9004C19.4572 20 19.9913 19.7782 20.385 19.3834C20.7788 18.9886 21 18.4531 21 17.8947V8.4Z" fill="#2B2D33"/>
</svg>

<svg width="21" height="20" fill="none" xmlns="http://www.w3.org/2000/svg"><path d="M21 8.4c0-.558-.221-1.094-.615-1.489a2.097 2.097 0 00-1.485-.616h-1.175L12.602 0H.004v2.105H11.73l3.339 4.21H8.717L6.702 8.422l5.06 4.758-.557.768C9.652 13.19 4.907 10.737 3.143 9a3.506 3.506 0 01-1.05-2.674H.004a5.666 5.666 0 001.648 4.21c1.743 1.738 6.656 4.327 8.714 5.359a1.98 1.98 0 002.519-.642l.85-1.306a2.11 2.11 0 00-.776-2.547L9.715 8.379H18.9v2.105h-5.249l.61.505c.44.434.736.992.85 1.6h3.79v5.264H5.252v-2.969l-2.1-1.2v4.21A2.1 2.1 0 005.252 20H18.9a2.105 2.105 0 002.1-2.105V8.4z" fill="#2B2D33"/></svg>
